icons/lines/facebook.svg

<svg xmlns="http://www.w3.org/2000/svg" width="24" height="24" viewBox="0 0 24 24" fill="none" stroke="currentColor" stroke-width="2" stroke-linecap="round" stroke-linejoin="round">
  <path d="M11 22v-7.2H9.3a.306.306 0 0 1-.3-.3v-1.9a.306.306 0 0 1 .3-.3H11V9c0-1.7 1.3-3 3-3h2.7a.306.306 0 0 1 .3.3v2.4a.306.306 0 0 1-.3.3h-2.4a.306.306 0 0 0-.3.3v2.9h2.6c.2 0 .3.2.3.4l-.4 1.9c0 .1-.2.2-.3.2H14V22" />
  <path d="M9 22c-5 0-7-2-7-7V9c0-5 2-7 7-7h6c5 0 7 2 7 7v6c0 5-2 7-7 7z" />
</svg>

<svg xmlns="http://www.w3.org/2000/svg" width="24" height="24" viewBox="0 0 24 24" fill="none" stroke="currentColor" stroke-width="2" stroke-linecap="round" stroke-linejoin="round" >
  <path d="M14 9.3V12.2H16.6C16.8 12.2 16.9 12.4 16.9 12.6L16.5 14.5C16.5 14.6 16.3 14.7 16.2 14.7H14V22H11V14.8H9.3C9.1 14.8 9 14.7 9 14.5V12.6C9 12.4 9.1 12.3 9.3 12.3H11V9C11 7.3 12.3 6 14 6H16.7C16.9 6 17 6.1 17 6.3V8.7C17 8.9 16.9 9 16.7 9H14.3C14.1 9 14 9.1 14 9.3Z" stroke-miterlimit="10"/>
  <path d="M15 22H9C4 22 2 20 2 15V9C2 4 4 2 9 2H15C20 2 22 4 22 9V15C22 20 20 22 15 22Z"/>
  </svg>
